;FLAVOR:UltiGCode
;TIME:6385
;MATERIAL:6240
;MATERIAL2:0
;NOZZLE_DIAMETER:0.4
;Generated with Cura_SteamEngine 2.4.0

;LAYER_COUNT:248
;LAYER:0
M107
G10
G0 F4320 X91.193 Y65.056 Z0.27
;TYPE:SKIRT
G11
G1 F1800 X91.665 Y64.418 E0.075
G1 X92.2 Y63.832 E0.14998
G1 X92.79 Y63.302 E0.22493
G1 X93.431 Y62.834 E0.29993
G1 X94.116 Y62.433 E0.37494
G1 X94.837 Y62.103 E0.44987
G1 X95.588 Y61.847 E0.52485
G1 X96.361 Y61.668 E0.59983
G1 X97.148 Y61.568 E0.6748
G1 X97.611 Y61.546 E0.7186
G1 X129.606 Y60.988 E3.74259
G1 X130.399 Y61.014 E3.81757
G1 X131.185 Y61.12 E3.89252
G1 X131.957 Y61.305 E3.96754
G1 X132.706 Y61.566 E4.04249
G1 X133.425 Y61.901 E4.11745
G1 X134.107 Y62.307 E4.19246
G1 X134.745 Y62.779 E4.26745
G1 X135.331 Y63.313 E4.34237
G1 X135.861 Y63.904 E4.41739
G1 X136.329 Y64.545 E4.49239
G1 X136.73 Y65.23 E4.5674
G1 X137.06 Y65.951 E4.64233
G1 X137.316 Y66.702 E4.71731
G1 X137.495 Y67.475 E4.7923
G1 X137.595 Y68.262 E4.86726
G1 X137.617 Y68.725 E4.91107
G1 X137.808 Y79.721 E5.95035
G1 X137.782 Y80.514 E6.02533
G1 X137.676 Y81.301 E6.10037
G1 X137.574 Y81.727 E6.14176
G1 X137.692 Y82.155 E6.18372
G1 X137.824 Y82.937 E6.25866
G1 X137.878 Y83.726 E6.3334
G1 X138.069 Y94.721 E7.37258
G1 X138.043 Y95.514 E7.44756
G1 X137.937 Y96.301 E7.5226
G1 X137.752 Y97.072 E7.59753
G1 X137.491 Y97.822 E7.67258
G1 X137.156 Y98.541 E7.74753
G1 X136.75 Y99.223 E7.82254
G1 X136.277 Y99.86 E7.89752
G1 X135.743 Y100.447 E7.97251
G1 X135.153 Y100.977 E8.04745
G1 X134.512 Y101.444 E8.1224
G1 X133.827 Y101.845 E8.19741
G1 X133.105 Y102.175 E8.27243
G1 X132.354 Y102.431 E8.34741
G1 X131.581 Y102.61 E8.42239
G1 X130.794 Y102.71 E8.49736
G1 X130.332 Y102.732 E8.54107
G1 X98.338 Y103.29 E11.56496
G1 X97.545 Y103.264 E11.63994
G1 X96.759 Y103.158 E11.71489
G1 X95.987 Y102.973 E11.78991
G1 X95.238 Y102.712 E11.86486
G1 X94.519 Y102.377 E11.93982
G1 X93.837 Y101.971 E12.01482
G1 X93.199 Y101.499 E12.08982
G1 X92.613 Y100.965 E12.16474
G1 X92.083 Y100.374 E12.23976
G1 X91.615 Y99.733 E12.31476
G1 X91.214 Y99.048 E12.38977
G1 X90.884 Y98.327 E12.4647
G1 X90.628 Y97.576 E12.53968
G1 X90.449 Y96.803 E12.61466
G1 X90.349 Y96.016 E12.68963
G1 X90.327 Y95.553 E12.73343
G1 X89.874 Y69.557 E15.19043
G1 X89.9 Y68.764 E15.26541
G1 X90.006 Y67.978 E15.34036
G1 X90.191 Y67.206 E15.41538
G1 X90.452 Y66.457 E15.49033
G1 X90.787 Y65.738 E15.56529
G1 X91.193 Y65.056 E15.64029
G0 F4320 X91.543 Y65.163
G1 F1800 X92.014 Y64.547 E15.71357
G1 X92.546 Y63.983 E15.78684
G1 X93.133 Y63.476 E15.86014
G1 X93.77 Y63.033 E15.93346
G1 X94.448 Y62.657 E16.00673
G1 X95.162 Y62.353 E16.08006
G1 X95.903 Y62.125 E16.15332
G1 X96.664 Y61.973 E16.22666
G1 X97.617 Y61.896 E16.31701
G1 X129.612 Y61.338 E19.341
G1 X130.387 Y61.365 E19.41428
G1 X131.155 Y61.471 E19.48754
G1 X131.909 Y61.655 E19.56089
G1 X132.639 Y61.917 E19.63418
G1 X133.339 Y62.252 E19.70752
G1 X134 Y62.657 E19.78077
G1 X134.616 Y63.128 E19.85405
G1 X135.18 Y63.66 E19.92732
G1 X135.687 Y64.247 E20.00062
G1 X136.13 Y64.884 E20.07394
G1 X136.506 Y65.562 E20.1472
G1 X136.81 Y66.276 E20.22054
G1 X137.038 Y67.017 E20.2938
G1 X137.19 Y67.778 E20.36714
G1 X137.267 Y68.731 E20.45749
G1 X137.458 Y79.727 E21.49677
G1 X137.431 Y80.502 E21.57005
G1 X137.325 Y81.271 E21.64341
G1 X137.215 Y81.719 E21.687
G1 X137.392 Y82.436 E21.75679
G1 X137.5 Y83.204 E21.83008
G1 X137.528 Y83.732 E21.88005
G1 X137.719 Y94.727 E22.91923
G1 X137.692 Y95.502 E22.99251
G1 X137.586 Y96.271 E23.06587
G1 X137.401 Y97.024 E23.13915
G1 X137.14 Y97.754 E23.21241
G1 X136.805 Y98.454 E23.28574
G1 X136.4 Y99.115 E23.359
G1 X135.929 Y99.731 E23.43228
G1 X135.397 Y100.296 E23.50562
G1 X134.809 Y100.802 E23.57892
G1 X134.173 Y101.246 E23.65222
G1 X133.494 Y101.621 E23.72552
G1 X132.78 Y101.925 E23.79886
G1 X132.039 Y102.153 E23.87212
G1 X131.279 Y102.305 E23.94536
G1 X130.326 Y102.382 E24.03572
G1 X98.332 Y102.94 E27.05961
G1 X97.557 Y102.913 E27.13289
G1 X96.789 Y102.807 E27.20615
G1 X96.035 Y102.623 E27.2795
G1 X95.305 Y102.361 E27.35279
G1 X94.605 Y102.026 E27.42613
G1 X93.944 Y101.621 E27.49938
G1 X93.328 Y101.15 E27.57266
G1 X92.764 Y100.618 E27.64593
G1 X92.257 Y100.031 E27.71923
G1 X91.814 Y99.394 E27.79255
G1 X91.438 Y98.716 E27.86581
G1 X91.134 Y98.002 E27.93915
G1 X90.906 Y97.261 E28.01241
G1 X90.754 Y96.5 E28.08575
G1 X90.677 Y95.547 E28.1761
G1 X90.224 Y69.551 E30.6331
G1 X90.251 Y68.776 E30.70638
G1 X90.357 Y68.008 E30.77964
G1 X90.541 Y67.254 E30.85298
G1 X90.803 Y66.524 E30.92628
G1 X91.138 Y65.824 E30.99961
G1 X91.543 Y65.163 E31.07287
G0 F4320 X91.893 Y65.273
G1 F1800 X92.362 Y64.679 E31.14439
G1 X92.892 Y64.138 E31.21596
G1 X93.476 Y63.655 E31.28758
G1 X94.107 Y63.237 E31.3591
G1 X94.779 Y62.888 E31.43066
G1 X95.484 Y62.611 E31.50224
G1 X96.215 Y62.411 E31.57386
G1 X96.962 Y62.288 E31.6454
G1 X97.623 Y62.246 E31.70799
G1 X129.618 Y61.688 E34.73198
G1 X130.375 Y61.715 E34.80356
G1 X131.125 Y61.821 E34.87514
G1 X131.859 Y62.006 E34.94667
G1 X132.57 Y62.267 E35.01825
G1 X133.249 Y62.602 E35.0898
G1 X133.89 Y63.007 E35.16145
G1 X134.484 Y63.476 E35.23297
G1 X135.025 Y64.006 E35.30454
G1 X135.507 Y64.59 E35.3761
G1 X135.926 Y65.221 E35.44768
G1 X136.275 Y65.893 E35.51923
G1 X136.552 Y66.598 E35.59081
G1 X136.752 Y67.329 E35.66243
G1 X136.875 Y68.076 E35.73397
G1 X136.917 Y68.737 E35.79657
G1 X137.108 Y79.733 E36.83584
G1 X137.081 Y80.49 E36.90743
G1 X136.975 Y81.24 E36.97901
G1 X136.849 Y81.74 E37.02773
G1 X136.926 Y81.973 E37.05092
G1 X137.086 Y82.713 E37.12247
G1 X137.178 Y83.738 E37.21972
G1 X137.369 Y94.733 E38.2589
G1 X137.342 Y95.49 E38.33049
G1 X137.236 Y96.24 E38.40207
G1 X137.051 Y96.975 E38.47369
G1 X136.789 Y97.685 E38.54521
G1 X136.455 Y98.365 E38.6168
G1 X136.05 Y99.005 E38.68837
G1 X135.58 Y99.599 E38.75995
G1 X135.051 Y100.14 E38.83146
G1 X134.467 Y100.623 E38.90307
G1 X133.835 Y101.041 E38.97468
G1 X133.163 Y101.39 E39.04624
G1 X132.458 Y101.667 E39.11782
G1 X131.728 Y101.867 E39.18934
G1 X130.98 Y101.99 E39.26098
G1 X130.32 Y102.032 E39.32347
G1 X98.326 Y102.59 E42.34737
G1 X97.569 Y102.563 E42.41895
G1 X96.819 Y102.457 E42.49053
G1 X96.085 Y102.272 E42.56206
G1 X95.374 Y102.011 E42.63363
G1 X94.695 Y101.676 E42.70518
G1 X94.054 Y101.271 E42.77684
G1 X93.46 Y100.802 E42.84836
G1 X92.919 Y100.272 E42.91993
G1 X92.437 Y99.688 E42.99148
G1 X92.018 Y99.057 E43.06306
G1 X91.669 Y98.385 E43.13462
G1 X91.392 Y97.68 E43.2062
G1 X91.192 Y96.949 E43.27782
G1 X91.069 Y96.202 E43.34936
G1 X91.027 Y95.541 E43.41195
G1 X90.574 Y69.545 E45.86895
G1 X90.601 Y68.788 E45.94053
G1 X90.707 Y68.038 E46.01211
G1 X90.892 Y67.304 E46.08364
G1 X91.153 Y66.593 E46.15521
G1 X91.488 Y65.914 E46.22676
G1 X91.893 Y65.273 E46.29842
G0 F4320 X92.242 Y65.387
G1 F1800 X92.71 Y64.815 E46.36826
G1 X93.238 Y64.298 E46.43809
G1 X93.817 Y63.84 E46.50785
G1 X94.443 Y63.448 E46.57765
G1 X95.108 Y63.126 E46.64747
G1 X95.804 Y62.878 E46.7173
G1 X96.522 Y62.706 E46.78707
G1 X97.255 Y62.613 E46.85689
G1 X97.629 Y62.596 E46.89227
G1 X129.624 Y62.038 E49.91626
G1 X130.362 Y62.065 E49.98605
G1 X131.093 Y62.172 E50.05586
G1 X131.808 Y62.357 E50.12565
G1 X132.499 Y62.618 E50.19546
G1 X133.158 Y62.953 E50.26532
G1 X133.776 Y63.356 E50.33504
G1 X134.348 Y63.824 E50.40488
G1 X134.865 Y64.351 E50.47464
G1 X135.323 Y64.931 E50.54448
G1 X135.715 Y65.557 E50.61428
G1 X136.037 Y66.222 E50.6841
G1 X136.285 Y66.918 E50.75392
G1 X136.457 Y67.636 E50.8237
G1 X136.55 Y68.369 E50.89352
G1 X136.567 Y68.743 E50.9289
G1 X136.758 Y79.739 E51.96818
G1 X136.731 Y80.478 E52.03806
G1 X136.624 Y81.209 E52.10787
G1 X136.485 Y81.748 E52.16048
G1 X136.638 Y82.26 E52.21097
G1 X136.772 Y82.986 E52.28074
G1 X136.828 Y83.744 E52.35257
G1 X137.019 Y94.739 E53.39175
G1 X136.992 Y95.478 E53.46163
G1 X136.885 Y96.208 E53.53136
G1 X136.7 Y96.924 E53.60124
G1 X136.439 Y97.614 E53.67095
G1 X136.104 Y98.273 E53.74081
G1 X135.7 Y98.892 E53.81067
G1 X135.232 Y99.463 E53.88043
G1 X134.705 Y99.98 E53.9502
G1 X134.125 Y100.438 E54.02004
G1 X133.499 Y100.83 E54.08983
G1 X132.834 Y101.152 E54.15966
G1 X132.139 Y101.4 E54.22939
G1 X131.42 Y101.572 E54.29925
G1 X130.688 Y101.665 E54.36898
G1 X130.314 Y101.682 E54.40436
G1 X98.32 Y102.24 E57.42826
G1 X97.582 Y102.213 E57.49804
G1 X96.851 Y102.106 E57.56786
G1 X96.136 Y101.921 E57.63765
G1 X95.445 Y101.66 E57.70745
G1 X94.786 Y101.325 E57.77731
G1 X94.168 Y100.922 E57.84703
G1 X93.596 Y100.454 E57.91688
G1 X93.079 Y99.927 E57.98664
G1 X92.621 Y99.347 E58.05648
G1 X92.229 Y98.721 E58.12628
G1 X91.907 Y98.056 E58.1961
G1 X91.659 Y97.36 E58.26592
G1 X91.487 Y96.642 E58.33569
G1 X91.394 Y95.909 E58.40552
G1 X91.377 Y95.535 E58.4409
G1 X90.924 Y69.539 E60.89789
G1 X90.951 Y68.801 E60.96768
G1 X91.058 Y68.07 E61.03749
G1 X91.243 Y67.355 E61.10729
G1 X91.504 Y66.664 E61.17709
G1 X91.839 Y66.005 E61.24695
G1 X92.242 Y65.387 E61.31667
G0 F4320 X92.592 Y65.504
G1 F1800 X93.058 Y64.956 E61.38465
G1 X93.582 Y64.463 E61.45264
G1 X94.158 Y64.031 E61.52068
G1 X94.778 Y63.666 E61.58867
G1 X95.435 Y63.372 E61.65669
G1 X96.12 Y63.153 E61.72465
G1 X96.825 Y63.011 E61.79261
G1 X97.635 Y62.946 E61.8694
G1 X129.63 Y62.388 E64.89339
G1 X130.349 Y62.415 E64.96138
G1 X131.06 Y62.522 E65.02932
G1 X131.756 Y62.708 E65.0974
G1 X132.426 Y62.969 E65.16535
G1 X133.063 Y63.303 E65.23332
G1 X133.659 Y63.706 E65.30131
G1 X134.207 Y64.172 E65.36929
G1 X134.7 Y64.696 E65.43728
G1 X135.132 Y65.272 E65.50532
G1 X135.497 Y65.892 E65.57331
G1 X135.791 Y66.548 E65.64124
G1 X136.01 Y67.234 E65.70929
G1 X136.152 Y67.939 E65.77725
G1 X136.217 Y68.75 E65.85414
G1 X136.408 Y79.746 E66.89342
G1 X136.381 Y80.464 E66.96132
G1 X136.273 Y81.176 E67.02937
G1 X136.12 Y81.752 E67.08569
G1 X136.157 Y81.847 E67.09532
G1 X136.343 Y82.543 E67.1634
G1 X136.45 Y83.254 E67.23135
G1 X136.478 Y83.751 E67.27839
G1 X136.669 Y94.746 E68.31758
G1 X136.642 Y95.464 E68.38547
G1 X136.534 Y96.176 E68.45353
G1 X136.349 Y96.871 E68.52149
G1 X136.088 Y97.541 E68.58944
G1 X135.754 Y98.179 E68.65749
G1 X135.351 Y98.775 E68.72548
G1 X134.885 Y99.323 E68.79346
G1 X134.36 Y99.815 E68.86146
G1 X133.785 Y100.247 E68.92942
G1 X133.165 Y100.612 E68.99741
G1 X132.508 Y100.906 E69.06543
G1 X131.823 Y101.125 E69.13339
G1 X131.118 Y101.267 E69.20135
G1 X130.308 Y101.332 E69.27814
G1 X98.314 Y101.89 E72.30203
G1 X97.595 Y101.863 E72.37003
G1 X96.884 Y101.756 E72.43797
G1 X96.188 Y101.57 E72.50605
G1 X95.518 Y101.309 E72.574
G1 X94.881 Y100.975 E72.64197
G1 X94.285 Y100.572 E72.70996
G1 X93.737 Y100.106 E72.77794
G1 X93.244 Y99.582 E72.84593
G1 X92.812 Y99.006 E72.91397
G1 X92.447 Y98.386 E72.98196
G1 X92.153 Y97.73 E73.04989
G1 X91.934 Y97.044 E73.11794
G1 X91.792 Y96.339 E73.1859
G1 X91.727 Y95.529 E73.26269
G1 X91.274 Y69.533 E75.71969
G1 X91.301 Y68.814 E75.78768
G1 X91.408 Y68.102 E75.85572
G1 X91.594 Y67.407 E75.92371
G1 X91.855 Y66.737 E75.99166
G1 X92.189 Y66.1 E76.05963
G1 X92.592 Y65.504 E76.12762
G0 F4320 X92.941 Y65.624
G1 F1800 X93.405 Y65.101 E76.19369
G1 X93.926 Y64.634 E76.25981
G1 X94.497 Y64.229 E76.32596
G1 X95.11 Y63.892 E76.39207
G1 X95.758 Y63.627 E76.45822
G1 X96.432 Y63.438 E76.52437
G1 X97.122 Y63.327 E76.59042
G1 X97.641 Y63.296 E76.63955
G1 X129.636 Y62.738 E79.66354
G1 X130.335 Y62.766 E79.72965
G1 X131.027 Y62.873 E79.79582
G1 X131.701 Y63.059 E79.86189
G1 X132.351 Y63.32 E79.92808
G1 X132.966 Y63.653 E79.99417
G1 X133.539 Y64.055 E80.06032
G1 X134.062 Y64.519 E80.12639
G1 X134.529 Y65.04 E80.19251
G1 X134.934 Y65.611 E80.25866
G1 X135.271 Y66.224 E80.32477
G1 X135.536 Y66.872 E80.39093
G1 X135.725 Y67.546 E80.45708
G1 X135.836 Y68.236 E80.52312
G1 X135.867 Y68.756 E80.57235
G1 X136.058 Y79.752 E81.61163
G1 X136.03 Y80.451 E81.67773
G1 X135.923 Y81.142 E81.74381
G1 X135.75 Y81.77 E81.80537
G1 X135.882 Y82.14 E81.84249
G1 X136.04 Y82.821 E81.90856
G1 X136.128 Y83.757 E81.9974
G1 X136.319 Y94.752 E83.03658
G1 X136.291 Y95.451 E83.10269
G1 X136.184 Y96.142 E83.16877
G1 X135.998 Y96.817 E83.23493
G1 X135.737 Y97.466 E83.30104
G1 X135.403 Y98.081 E83.36717
G1 X135.002 Y98.654 E83.43326
G1 X134.538 Y99.177 E83.49933
G1 X134.017 Y99.645 E83.56552
G1 X133.446 Y100.049 E83.63162
G1 X132.832 Y100.386 E83.6978
G1 X132.185 Y100.651 E83.76387
G1 X131.511 Y100.84 E83.83002
G1 X130.82 Y100.951 E83.89616
G1 X130.302 Y100.982 E83.9452
G1 X98.308 Y101.54 E86.96909
G1 X97.609 Y101.512 E87.0352
G1 X96.917 Y101.405 E87.10137
G1 X96.243 Y101.219 E87.16745
G1 X95.593 Y100.958 E87.23364
G1 X94.978 Y100.625 E87.29973
G1 X94.405 Y100.223 E87.36587
G1 X93.882 Y99.759 E87.43194
G1 X93.415 Y99.238 E87.49806
G1 X93.01 Y98.667 E87.56422
G1 X92.673 Y98.054 E87.63032
G1 X92.408 Y97.406 E87.69648
G1 X92.219 Y96.732 E87.76263
G1 X92.108 Y96.042 E87.82867
G1 X92.077 Y95.523 E87.87781
G1 X91.624 Y69.527 E90.3348
G1 X91.652 Y68.828 E90.40091
G1 X91.759 Y68.136 E90.46708
G1 X91.945 Y67.461 E90.53325
G1 X92.206 Y66.812 E90.59935
G1 X92.539 Y66.197 E90.66544
G1 X92.941 Y65.624 E90.73159
G0 F4320 X93.29 Y65.749
G1 F1800 X93.752 Y65.251 E90.79578
G1 X94.269 Y64.81 E90.86
G1 X94.835 Y64.434 E90.92421
G1 X95.44 Y64.126 E90.98836
G1 X96.078 Y63.892 E91.05258
G1 X96.739 Y63.734 E91.11681
G1 X97.647 Y63.646 E91.20302
G1 X129.642 Y63.088 E94.227
G1 X130.321 Y63.116 E94.29122
G1 X130.992 Y63.224 E94.35545
G1 X131.645 Y63.409 E94.41959
G1 X132.273 Y63.671 E94.48389
G1 X132.865 Y64.004 E94.54808
G1 X133.414 Y64.404 E94.61227
G1 X133.912 Y64.866 E94.67646
G1 X134.353 Y65.383 E94.74068
G1 X134.729 Y65.949 E94.80489
G1 X135.037 Y66.554 E94.86905
G1 X135.271 Y67.192 E94.93326
G1 X135.429 Y67.853 E94.99749
G1 X135.517 Y68.762 E95.08379
G1 X135.708 Y79.758 E96.12307
G1 X135.68 Y80.437 E96.18729
G1 X135.572 Y81.107 E96.25142
G1 X135.386 Y81.761 E96.31567
G1 X135.384 Y81.766 E96.31618
G1 X135.391 Y81.781 E96.31775
G1 X135.598 Y82.428 E96.38194
G1 X135.728 Y83.095 E96.44616
G1 X135.778 Y83.763 E96.50946
G1 X135.969 Y94.758 E97.54865
G1 X135.941 Y95.437 E97.61287
G1 X135.833 Y96.107 E97.677
G1 X135.647 Y96.761 E97.74125
G1 X135.386 Y97.388 E97.80543
G1 X135.053 Y97.98 E97.86962
G1 X134.653 Y98.529 E97.93381
G1 X134.191 Y99.027 E97.998
G1 X133.674 Y99.468 E98.06222
G1 X133.108 Y99.844 E98.12643
G1 X132.502 Y100.152 E98.19067
G1 X131.865 Y100.386 E98.2548
G1 X131.204 Y100.544 E98.31903
G1 X130.296 Y100.632 E98.40524
G1 X98.302 Y101.19 E101.42913
G1 X97.623 Y101.162 E101.49335
G1 X96.952 Y101.054 E101.55757
G1 X96.299 Y100.869 E101.62171
G1 X95.671 Y100.607 E101.68601
G1 X95.079 Y100.274 E101.7502
G1 X94.53 Y99.874 E101.81439
G1 X94.032 Y99.412 E101.87859
G1 X93.591 Y98.895 E101.9428
G1 X93.215 Y98.329 E102.00702
G1 X92.907 Y97.724 E102.07117
G1 X92.673 Y97.086 E102.13539
G1 X92.515 Y96.425 E102.19961
G1 X92.427 Y95.517 E102.28582
G1 X91.974 Y69.521 E104.74282
G1 X92.002 Y68.842 E104.80704
G1 X92.11 Y68.171 E104.87126
G1 X92.295 Y67.517 E104.93549
G1 X92.557 Y66.89 E104.99971
G1 X92.89 Y66.298 E105.06389
G1 X93.29 Y65.749 E105.12808
G0 F4320 X93.638 Y65.878
G1 F1800 X94.098 Y65.407 E105.1903
G1 X94.611 Y64.994 E105.25254
G1 X95.17 Y64.647 E105.31471
G1 X95.768 Y64.369 E105.37703
G1 X96.394 Y64.167 E105.43919
G1 X97.041 Y64.041 E105.50148
G1 X97.653 Y63.996 E105.55947
G1 X129.648 Y63.438 E108.58346
G1 X130.306 Y63.466 E108.6457
G1 X130.956 Y63.574 E108.70796
G1 X131.588 Y63.76 E108.77022
G1 X132.192 Y64.021 E108.8324
G1 X132.76 Y64.354 E108.89462
G1 X133.284 Y64.752 E108.9568
G1 X133.756 Y65.212 E109.01908
G1 X134.169 Y65.725 E109.08132
G1 X134.516 Y66.284 E109.1435
G1 X134.794 Y66.882 E109.20582
G1 X134.996 Y67.508 E109.26798
G1 X135.122 Y68.155 E109.33027
G1 X135.167 Y68.768 E109.38835
G1 X135.358 Y79.764 E110.42763
G1 X135.33 Y80.422 E110.48987
G1 X135.222 Y81.071 E110.55204
G1 X135.036 Y81.703 E110.6143
G1 X135.002 Y81.781 E110.62234
G1 X135.127 Y82.079 E110.65288
G1 X135.306 Y82.713 E110.71513
G1 X135.406 Y83.363 E110.77728
G1 X135.428 Y83.769 E110.8157
G1 X135.619 Y94.764 E111.85489
G1 X135.591 Y95.422 E111.91712
G1 X135.483 Y96.071 E111.9793
G1 X135.297 Y96.703 E112.04155
G1 X135.036 Y97.307 E112.10373
G1 X134.703 Y97.876 E112.16604
G1 X134.304 Y98.4 E112.22828
G1 X133.845 Y98.872 E112.29049
G1 X133.332 Y99.284 E112.35267
G1 X132.772 Y99.632 E112.41498
